X:1
T:Rigaudon
C:Joseph Bodin de Boismorter
R:Rigaudon
Z:Transcribed by Frank Nordberg - http://www.musicaviva.com
F:http://abc.musicaviva.com/tunes/boismorter-joseph-bodin-de/boismorter-rig01.abc
V:1 Program 1 73 %Flute
V:2 Program 1 72 %Piccolo
M:C|
L:1/8
K:C
V:1
G2|c4e4|g6c'2|g2a2g2f2|(Me2de)c2G2|c4e4|
V:2
z2|z2G2c4|e4(edef)|e2f2e2d2|(c2G2)E2z2|z2G2c4|
%
V:1
g6c'2|g2a2Mg2f2|g6::de|f4f4|f6ed|e2e2(e2Mdc)|
V:2
e4(edef)|e2f2Me2d2|e6::Bc|d2e2d2c2|(B2A2B2)G2|c2c2(c2MBA)|
%
V:1
(d2G2)G2ef|(g2c'2)c'2(ba)|g6ef|(g2fe)(Td3c)|c6:|
V:2
(B2G2)G2cd|(edef)e2d2|(e2c2G2)cd|(e2dc) (TB3c)|c6:|
W:
W:
W:  From Musica Viva - http://www.musicaviva.com
W:  the Internet center for free sheet music downloads.

